X:1
T:Title
%%score [ 1 2 3 4 ]
L:1/8
Q:1/4=120
M:6/4
K:F
V:1 treble nm="MusicXML Part"
V:2 treble nm="MusicXML Part"
V:3 treble-8 nm="MusicXML Part"
V:4 bass nm="MusicXML Part"
V:1
{[Cd]} F2 F2 C2 F4 G2 | A4 F2 E6 | D6 F2 G2 A2 | D4 G2 E4 D2 |"^5" C6 C2 A2 G2 | A4 c2 B4 A2 | %6
w: Wohl- an, so kom- met|her, ihr From-|men, in An- dacht|euch nun- mehr er-|freut. Das Wei- nen|set- zet auf die|
 G6 B2 c2 d2 | G2 G2 c2 F2 G4 | F6 F2 G2 A2 |"^10" B6 G2 A2 =B2 | c6 A2 _B2 c2 | d4 G2 B2 A4 | %12
w: Seit' und laßt kein|Trau- ern mehr ein- kom-|men. Platz, Platz der|Wonn' und al- ler|Lust, die grö- ßer|ist, denn wir ge-|
 G6 B2 d2 G2 | c6 A4 c2 |"^15" c2 =B4 c6 | d2 d2 d2 G4 c2 | A4 G2 F6 | G2 G2 G2 C4 F2 | E4 D2 E6 | %19
w: wußt, ja, dach- ten|selbst nicht zu|be- geh- ren|ein solch Gut, als uns|jetzt ge- schicht.|Gott klärt auf un- ser|An- ge- sicht.|
"^20" C2 F2 G2 A2 F2 c2 | A2 G4 !fermata!F6 |] %21
w: Drum ge- bet Eh- re sei-|ner Eh- ren.|
V:2
{[G,G]} C2 C2 C2 D4 D2 | E4 D2 D4 ^C2 | D6 D2 G,2 D2 | =B,4 D2 C4 B,2 | C6 C2 C2 C2 | C4 F2 D4 C2 | %6
w: Wohl- an, so kom- met|her, ihr From ­|men, in An- dacht|euch nun- mehr er-|freut. Das Wei- nen|set- zet auf die|
 C6 D2 F2 F2 | E2 E2 E2 C2 D2 C2 | C6 C2 _E2 E2 | D6 B,2 F2 F2 | E6 D2 D2 G2 | F4 _E2 D2 E2 D2 | %12
w: Seit' und laßt kein|Trau- ern mehr ein- kom ­|men. Platz, Platz der|Wonn' und al- ler|Lust, die grö- ßer|ist, denn wir ge ­|
 D6 D2 F2 =E2 | C6 F4 G2 | F2 D4 E6 | D2 D2 D2 E4 G2 | F4 E2 F6 | E2 C2 C2 C4 C2 | C4 =B,2 C6 | %19
w: wußt, ja, dach- ten|selbst nicht zu|be- geh- ren|ein solch Gut, als uns|jetzt ge- schicht.|Gott klärt auf un- ser|An- ge- sicht.|
 G,2 A,2 _B,2 C2 C2 C2 | C2 C4 !fermata!C6 |] %21
w: Drum ge- bet Eh- re sei-|ner Eh- ren.|
V:3
{[Cd]} A2 A2 G2 A4 d2 | ^c4 A2 A6 | A6 A2 c2 A2 | G4 =B2 G4 G2 | G6 A2 A2 G2 | F4 A2 F4 F2 | %6
w: Wohl- an, so kom- met|her, ihr From-|men, in An- dacht|euch nun- mehr er-|freut. Das Wei- nen|set- zet auf die|
 E6 F2 F2 F2 | c2 c2 G2 A2 D2 E2 | F6 A2 B2 c2 | F6 G2 c2 d2 | G6 ^F2 G2 G2 | A4 c2 G4 ^F2 | %12
w: Seit' und laßt kein|Trau- ern mehr ein- kom ­|men. Platz, Platz der|Wonn' und al- ler|Lust, die grö- ßer|ist, denn wir ge-|
 G6 G2 A2 c2 | A6 d4 c2 | A2 G4 G6 | B2 G2 G2 G4 G2 | c4 c2 A6 | G2 G2 G2 A4 A2 | G4 G2 G6 | %19
w: wußt, ja, dach- ten|selbst nicht zu|be- geh- ren|ein solch Gut, als uns|jetzt ge- schicht.|Gott klärt auf un- ser|An- ge- sicht.|
 E2 C2 D2 F2 A2 G2 | F4 E2 !fermata!F6 |] %21
w: Drum ge- bet Eh- re sei-|ner Eh- ren.|
V:4
{[E,,C]} F,2 F,2 E,2 D,4 B,,2 | A,,4 D,2 A,,6 | D,6 D,2 E,2 ^F,2 | G,4 G,,2 C,4 G,,2 | %4
w: Wohl- an, so kom- met|her, ihr From-|men, in An- dacht|euch nun- mehr er-|
 C,6 F,2 F,2 E,2 | F,4 F,,2 B,,4 F,,2 | C,6 B,,2 A,,2 B,,2 | C,2 C,2 C,2 A,,2 B,,2 C,2 | %8
w: freut. Das Wei- nen|set- zet auf die|Seit' und laßt kein|Trau- ern mehr ein- kom ­|
 F,,6 F,2 _E,2 C,2 | B,,6 _E,2 F,2 D,2 | C,6 D,2 G,2 _E,2 | D,4 C,2 B,,2 C,2 D,2 | %12
w: men. Platz, Platz der|Wonn' und al- ler|Lust, die grö- ßer|ist, denn wir ge ­|
 G,,6 G,2 D,2 E,2 | F,6 F,4 E,2 | F,2 G,2 G,,2 C,6 | G,,2 =B,,2 B,,2 C,4 E,2 | F,G,A,B, C2 F,6 | %17
w: wußt, ja, dach- ten|selbst nicht zu|be- geh ­ ren|ein solch Gut, als uns|jetzt * * * ge- schicht.|
 C,2 E,2 E,2 F,4 A,,2 | C,D,E,F, G,2 C,6 | C,2 A,,2 G,,2 F,,2 F,,2 E,,2 | F,,2 C,4 !fermata!F,,6 |] %21
w: Gott klärt auf un- ser|An * * ­ ge- sicht.|Drum ge- bet Eh- re sei-|ner Eh- ren.|

